view/frontend/web/svg/flags/to.svg

<svg width="24" height="24" viewbox="0 0 20 15" viewBox="0 0 20 15" fill="none" xmlns="http://www.w3.org/2000/svg">
<g clip-path="url(#clip0_270_60795)">
<rect width="20" height="15" fill="white"/>
<path fill-rule="evenodd" clip-rule="evenodd" d="M0 0V15H20V0H0Z" fill="#E31D1C"/>
<mask id="mask0_270_60795" style="mask-type:luminance" maskUnits="userSpaceOnUse" x="0" y="0" width="20" height="15">
<path fill-rule="evenodd" clip-rule="evenodd" d="M0 0V15H20V0H0Z" fill="white"/>
</mask>
<g mask="url(#mask0_270_60795)">
<rect width="11.25" height="10" fill="#F7FCFF"/>
<path fill-rule="evenodd" clip-rule="evenodd" d="M7.5 1.25H5V3.75H2.5V6.25H5V8.75H7.5V6.25H10V3.75H7.5V1.25Z" fill="#E31D1C"/>
</g>
</g>
<defs>
<clipPath id="clip0_270_60795">
<rect width="20" height="15" fill="white"/>
</clipPath>
</defs>
</svg>

<svg width="24" height="24" viewbox="0 0 20 15" fill="none" xmlns="http://www.w3.org/2000/svg">
  <mask id="a" maskUnits="userSpaceOnUse" x="0" y="0" width="20" height="15">
    <path fill="#fff" d="M0 0h20v15H0z"/>
  </mask>
  <g mask="url(#a)">
    <path fill-rule="evenodd" clip-rule="evenodd" d="M0 0v15h20V0H0z" fill="#E31D1C"/>
    <mask id="b" maskUnits="userSpaceOnUse" x="0" y="0" width="20" height="15">
      <path fill-rule="evenodd" clip-rule="evenodd" d="M0 0v15h20V0H0z" fill="#fff"/>
    </mask>
    <g mask="url(#b)">
      <path fill="#F7FCFF" d="M0 0h11.25v10H0z"/>
      <path fill-rule="evenodd" clip-rule="evenodd" d="M7.5 1.25H5v2.5H2.5v2.5H5v2.5h2.5v-2.5H10v-2.5H7.5v-2.5z" fill="#E31D1C"/>
    </g>
  </g>
</svg>
